X:1
T:The Red Bee
C:Joe Liddy
S:Mary Crowley
R:reel
M:4/4
L:1/8
K:Bm
de|f2 BA BAFA|d2 cA BF (3GFE|FB (3cBA Bcde|fded cAde|
fB (3BBB cBAF|EFAB cBce|fafe cBAF|EFAc B2:|
|:cA|B2 cB fBcB|afge fecA|B2 cB fBcB|AFEF ABcA|
B2 cB fBcB|afge fece|fafe cBAF|EFAc B2:|
|:Bc|d2 fd adbf|afef edBc|defd edfe|dBAF E2 FA|
d2 fd adbf|afef edBA|fB (3cBA FEFA|BdcA B2:|]

composer: Joe Liddy
